symbols/web/directions_railway/materialsymbolsoutlined/directions_railway_wght300gradN25_24px.svg

<svg xmlns="http://www.w3.org/2000/svg" height="24" width="24"><path d="M6.3 20v-.675l1.475-1q-1.3 0-2.2-.9-.9-.9-.9-2.2V6.05q0-1.775 1.737-2.575 1.738-.8 5.588-.8 3.95 0 5.638.787 1.687.788 1.687 2.588v9.175q0 1.3-.9 2.2-.9.9-2.2.9l1.475 1V20Zm-.225-9.425h11.85v-3.8H6.075Zm10.15 1.4H6.075h11.85H16.225ZM12 15.725q.525 0 .9-.362.375-.363.375-.913 0-.525-.375-.888-.375-.362-.9-.362t-.9.362q-.375.363-.375.888t.375.9q.375.375.9.375Zm-4.225 1.2h8.45q.725 0 1.213-.487.487-.488.487-1.213v-3.25H6.075v3.25q0 .725.487 1.213.488.487 1.213.487ZM12 4.075q-2.5 0-3.887.325-1.388.325-1.788.975H17.75Q17.4 4.725 16 4.4q-1.4-.325-4-.325Zm0 1.3h5.75H6.325 12Z"/></svg>

<svg xmlns="http://www.w3.org/2000/svg" height="24" width="24"><path d="M6.3 20V19.325L7.775 18.325Q6.475 18.325 5.575 17.425Q4.675 16.525 4.675 15.225V6.05Q4.675 4.275 6.412 3.475Q8.15 2.675 12 2.675Q15.95 2.675 17.638 3.462Q19.325 4.25 19.325 6.05V15.225Q19.325 16.525 18.425 17.425Q17.525 18.325 16.225 18.325L17.7 19.325V20ZM6.075 10.575H17.925V6.775H6.075ZM16.225 11.975H7.775Q7.05 11.975 6.562 11.975Q6.075 11.975 6.075 11.975H17.925Q17.925 11.975 17.438 11.975Q16.95 11.975 16.225 11.975ZM12 15.725Q12.525 15.725 12.9 15.363Q13.275 15 13.275 14.45Q13.275 13.925 12.9 13.562Q12.525 13.2 12 13.2Q11.475 13.2 11.1 13.562Q10.725 13.925 10.725 14.45Q10.725 14.975 11.1 15.35Q11.475 15.725 12 15.725ZM7.775 16.925H16.225Q16.95 16.925 17.438 16.438Q17.925 15.95 17.925 15.225V11.975H6.075V15.225Q6.075 15.95 6.562 16.438Q7.05 16.925 7.775 16.925ZM12 4.075Q9.5 4.075 8.113 4.4Q6.725 4.725 6.325 5.375H17.75Q17.4 4.725 16 4.4Q14.6 4.075 12 4.075ZM12 5.375Q14.6 5.375 16 5.375Q17.4 5.375 17.75 5.375H6.325Q6.725 5.375 8.113 5.375Q9.5 5.375 12 5.375Z"/></svg>
